alternatives/kde-colorscheme/24/apps/firefox.svg

<?xml version="1.0" encoding="UTF-8" standalone="no"?>
<!-- Created with Inkscape (http://www.inkscape.org/) -->

<svg
   width="24"
   height="24"
   viewBox="0 0 24 24"
   version="1.1"
   id="svg5"
   inkscape:version="1.2.2 (1:1.2.2+202305151914+b0a8486541)"
   sodipodi:docname="firefox.svg"
   xmlns:inkscape="http://www.inkscape.org/namespaces/inkscape"
   xmlns:sodipodi="http://sodipodi.sourceforge.net/DTD/sodipodi-0.dtd"
   xmlns="http://www.w3.org/2000/svg"
   xmlns:svg="http://www.w3.org/2000/svg">
  <sodipodi:namedview
     id="namedview7"
     pagecolor="#ffffff"
     bordercolor="#000000"
     borderopacity="0.25"
     inkscape:showpageshadow="2"
     inkscape:pageopacity="0.0"
     inkscape:pagecheckerboard="0"
     inkscape:deskcolor="#d1d1d1"
     inkscape:document-units="px"
     showgrid="false"
     inkscape:zoom="33.583333"
     inkscape:cx="11.985112"
     inkscape:cy="12"
     inkscape:window-width="1920"
     inkscape:window-height="1008"
     inkscape:window-x="0"
     inkscape:window-y="0"
     inkscape:window-maximized="1"
     inkscape:current-layer="svg5"
     showguides="true" />
  <defs
     id="defs2">
    <style
       id="current-color-scheme"
       type="text/css">
         .ColorScheme-Text { color:#232629; }
         .ColorScheme-Highlight { color:#3daee9; }
     </style>
  </defs>
  <path
     id="path530"
     style="fill:currentColor;fill-opacity:1;stroke-width:0.750005;stroke-linecap:round;stroke-linejoin:round"
     class="ColorScheme-Highlight"
     d="M 10,2 C 3.174114,2 2,3.2048695 2,10 v 4 c 0,6.79513 1.174114,8 8,8 h 4 c 6.825886,0 8,-1.20487 8,-8 V 10 C 22,3.2048695 20.825886,2 14,2 Z"
     sodipodi:nodetypes="sssssssss" />
  <g
     id="g1799"
     style="opacity:0.6"
     class="ColorScheme-Text">
    <path
       id="path1150"
       style="opacity:0.4"
       d="M 14.515625 4 C 12.827086 5.1476188 12.086387 6.3065495 11.777344 7.515625 A 4.5 4.5 0 0 1 12 7.5 A 4.5 4.5 0 0 1 16.5 12 A 4.5 4.5 0 0 1 15.017578 15.330078 L 15.917969 16.251953 L 19.707031 12.992188 C 19.203072 11.24073 19.437447 10.300655 18.074219 8.5546875 C 16.46456 6.4931126 14.995335 5.8941161 14.515625 4 z " />
    <path
       id="path585"
       style="opacity:0.7;stroke:none;stroke-width:2;stroke-linecap:round;stroke-linejoin:round"
       d="M 12 8 A 4 4 0 0 0 10.064453 8.5117188 C 10.306426 8.7047153 10.528923 8.8925232 10.667969 9.0019531 C 11.246807 9.4575298 11.96626 9.7328587 12.142578 9.78125 L 12.011719 9.7636719 A 0.50005 0.50005 0 0 1 12.5 10.148438 C 12.545926 10.342572 12.480609 10.662162 12.318359 10.875 L 12.318359 10.876953 C 12.309349 10.888823 12.290659 10.913866 12.261719 10.947266 C 12.131923 11.096669 11.958894 11.24596 11.708984 11.425781 C 11.615434 11.493069 11.513895 11.560734 11.404297 11.632812 A 0.50005 0.50005 0 0 1 11.146484 11.714844 C 11.036562 11.718334 10.931794 11.725022 10.833984 11.732422 C 10.736998 11.739802 10.642836 11.748476 10.554688 11.759766 C 10.293165 11.79333 10.081784 11.842321 9.9082031 11.900391 C 9.8501179 11.919821 9.7958356 11.939938 9.7460938 11.960938 A 0.50005 0.50005 0 0 0 9.7441406 11.960938 L 9.7421875 11.960938 C 9.6456375 12.002027 9.5621287 12.049109 9.4824219 12.099609 C 9.3167724 12.210646 9.1996872 12.304933 9.1308594 12.376953 C 8.989063 12.525422 8.9875588 12.53616 9.0117188 12.734375 C 9.0238996 12.834525 9.0587538 12.976175 9.1210938 13.158203 C 9.1390846 13.210668 9.1584406 13.264086 9.1816406 13.316406 C 9.1835906 13.319806 9.18529 13.320119 9.1875 13.324219 C 9.19057 13.329919 9.1922156 13.339904 9.1972656 13.351562 C 9.1983756 13.353862 9.2003513 13.355722 9.2011719 13.357422 C 9.2020519 13.359422 9.2025195 13.361881 9.203125 13.363281 L 9.2050781 13.365234 L 9.2011719 13.351562 C 9.2292667 13.411852 9.2589028 13.470837 9.2929688 13.529297 A 0.50005 0.50005 0 0 1 9.296875 13.537109 C 9.3319746 13.596686 9.3656918 13.649719 9.4003906 13.699219 L 9.4003906 13.701172 L 9.4023438 13.703125 L 9.4179688 13.722656 A 0.50005 0.50005 0 0 1 9.421875 13.728516 C 9.454597 13.773751 9.492989 13.822901 9.53125 13.869141 A 0.50005 0.50005 0 0 1 9.5371094 13.876953 C 9.5406904 13.881243 9.5519815 13.892934 9.5703125 13.914062 A 0.50005 0.50005 0 0 0 9.5722656 13.916016 C 9.5736526 13.917616 9.5834115 13.928879 9.6015625 13.949219 A 0.50005 0.50005 0 0 0 9.6035156 13.951172 C 9.6023126 13.949812 9.6120744 13.959391 9.6152344 13.962891 L 9.6289062 13.978516 C 9.6493002 14.000776 9.6695811 14.022619 9.6894531 14.042969 L 9.6933594 14.046875 L 9.6972656 14.050781 A 0.50005 0.50005 0 0 0 9.6992188 14.052734 C 9.8078087 14.162646 9.9303627 14.269371 10.064453 14.369141 C 10.072553 14.375021 10.081347 14.380372 10.091797 14.388672 L 10.09375 14.390625 C 10.10976 14.402535 10.126366 14.415975 10.134766 14.421875 C 10.171198 14.447525 10.207168 14.471341 10.242188 14.494141 C 10.237708 14.491481 10.249921 14.497752 10.275391 14.513672 A 0.50005 0.50005 0 0 0 10.277344 14.515625 C 10.312984 14.538165 10.340098 14.555946 10.367188 14.572266 L 10.384766 14.582031 C 10.390736 14.585331 10.394344 14.587297 10.402344 14.591797 A 0.50005 0.50005 0 0 0 10.404297 14.591797 C 10.459095 14.623397 10.516052 14.654997 10.576172 14.685547 A 0.50005 0.50005 0 0 0 10.578125 14.685547 C 10.607615 14.700617 10.616336 14.705419 10.603516 14.699219 A 0.50005 0.50005 0 0 1 10.609375 14.703125 C 11.063693 14.928363 11.610085 15.068986 12.214844 15.103516 C 13.625889 14.950176 14.723882 13.731883 14.724609 12.287109 C 14.723173 11.19974 14.095812 10.216044 13.111328 9.7539062 A 0.50005 0.50005 0 0 1 13.289062 8.8027344 C 13.349686 8.7984644 13.416534 8.7936939 13.490234 8.7929688 A 0.50005 0.50005 0 0 1 13.496094 8.7929688 C 13.880235 8.7929645 14.248572 8.8512361 14.595703 8.9589844 A 4 4 0 0 0 12 8 z M 9.3554688 13.646484 C 9.3556376 13.646654 9.3913519 13.698141 9.4199219 13.738281 C 9.4035279 13.712171 9.3926519 13.691947 9.3886719 13.685547 L 9.3554688 13.646484 z " />
    <path
       d="M 7.07418,5.8632815 C 5.3484,7.1978715 4.19674,9.2189215 4.0273,11.509771 4.0105,11.682081 4,11.869452 4,12.093752 c 0,4.36666 3.58172,7.90625 8,7.90625 4.41828,0 8,-3.53959 8,-7.90625 0,-2.03298 -0.77706,-3.8863405 -2.05273,-5.2871105 0.0284,-10e-4 -0.11916,-0.11624 -0.19532,-0.0879 0.47233,0.78289 0.7669,1.68681 0.82813,2.65234 -0.0803,-0.2066 -0.1703,-0.40841 -0.27149,-0.60546 0.0539,0.3197 0.084,0.64541 0.084,0.98046 0,1.8523105 -0.79364,3.5043205 -2.07813,4.5800805 0.30867,-0.50259 0.48632,-1.09351 0.48633,-1.72656 10e-6,-1.82529 -1.4794,-3.3066605 -3.30469,-3.3066405 -0.0569,5.6e-4 -0.11507,0.004 -0.17187,0.008 1.15849,0.54382 1.8987,1.7065605 1.90039,2.9863305 -8.6e-4,1.70871 -1.30144,3.16403 -2.98633,3.32812 -0.69401,-0.0316 -1.32049,-0.20155 -1.85156,-0.46484 -0.0125,-0.006 -0.0248,-0.0132 -0.0371,-0.0195 -0.0667,-0.0339 -0.13171,-0.0688 -0.19531,-0.10547 -0.007,-0.004 -0.0145,-0.008 -0.0215,-0.0117 -0.042,-0.0246 -0.0824,-0.0505 -0.12304,-0.0762 -0.008,-0.005 -0.0155,-0.009 -0.0234,-0.0137 -0.0472,-0.0303 -0.0935,-0.0619 -0.13867,-0.0937 -0.0225,-0.0158 -0.0445,-0.0326 -0.0664,-0.0488 -0.005,-0.004 -0.0104,-0.008 -0.0156,-0.0117 -0.15338,-0.11412 -0.29452,-0.23632 -0.42188,-0.36523 -0.003,-0.003 -0.005,-0.005 -0.008,-0.008 -0.0317,-0.0323 -0.0618,-0.0646 -0.0918,-0.0977 -0.005,-0.006 -0.0104,-0.0117 -0.0156,-0.0176 -0.0116,-0.013 -0.0238,-0.0259 -0.0352,-0.0391 -0.0131,-0.0151 -0.0264,-0.0297 -0.0391,-0.0449 -0.003,-0.003 -0.005,-0.007 -0.008,-0.01 -0.0446,-0.0539 -0.0888,-0.11059 -0.1289,-0.16602 -0.005,-0.006 -0.009,-0.0115 -0.0137,-0.0176 -8.6e-4,-0.001 -10e-4,-0.003 -0.002,-0.004 -0.002,-0.003 -0.005,-0.006 -0.008,-0.01 -0.046,-0.0654 -0.0874,-0.13208 -0.12695,-0.19921 -0.002,-0.003 -0.004,-0.007 -0.006,-0.01 -0.0419,-0.0719 -0.0791,-0.14345 -0.11328,-0.2168 -10e-4,-0.003 -0.004,-0.007 -0.006,-0.01 -6.2e-4,-10e-4 -0.001,-0.003 -0.002,-0.004 -10e-4,-0.002 -0.002,-0.005 -0.004,-0.008 -0.0332,-0.0729 -0.0626,-0.14692 -0.0879,-0.2207 -0.0688,-0.20089 -0.11425,-0.3728 -0.13281,-0.52539 -0.0372,-0.3052 0.035,-0.53448 0.2539,-0.76368 0.10952,-0.11459 0.25604,-0.22862 0.44336,-0.35351 0.10129,-0.0643 0.21295,-0.12472 0.33789,-0.17774 h 0.002 c 0.0623,-0.0263 0.12792,-0.051 0.19727,-0.0742 0.20985,-0.0702 0.45405,-0.12512 0.74219,-0.1621 0.096,-0.0123 0.19838,-0.0231 0.30469,-0.0312 0.10575,-0.008 0.21732,-0.0139 0.33398,-0.0176 0.10719,-0.0705 0.20333,-0.13506 0.28711,-0.19532 0.23041,-0.16579 0.37572,-0.29555 0.4668,-0.40039 0.0136,-0.0157 0.0259,-0.0322 0.0371,-0.0469 0.10299,-0.13458 0.11099,-0.22747 0.0918,-0.30859 h -0.002 c -0.26744,-0.0734 -1.00049,-0.3561105 -1.65234,-0.8691505 -0.26485,-0.20844 -0.56282,-0.51384 -0.96875,-0.78515 -0.14964,-0.50185 -0.25968,-1.06622 -0.0625,-2.11719 -0.74665,0.24546 -1.40957,0.93207 -1.93165,1.51563 -0.0107,-1.8e-4 -0.0204,-0.002 -0.0312,-0.002 -0.31836,-0.61302 -0.2598,-1.41664 -0.29101,-2.14453 z"
       id="path565" />
  </g>
</svg>

<?xml version="1.0" encoding="UTF-8" standalone="no"?>
<!-- Created with Inkscape (http://www.inkscape.org/) -->

<svg
   width="24"
   height="24"
   viewBox="0 0 24 24"
   version="1.1"
   id="svg5"
   inkscape:version="1.2.2 (1:1.2.2+202305151914+b0a8486541)"
   sodipodi:docname="firefox.svg"
   xmlns:inkscape="http://www.inkscape.org/namespaces/inkscape"
   xmlns:sodipodi="http://sodipodi.sourceforge.net/DTD/sodipodi-0.dtd"
   xmlns="http://www.w3.org/2000/svg"
   xmlns:svg="http://www.w3.org/2000/svg">
  <sodipodi:namedview
     id="namedview7"
     pagecolor="#ffffff"
     bordercolor="#000000"
     borderopacity="0.25"
     inkscape:showpageshadow="2"
     inkscape:pageopacity="0.0"
     inkscape:pagecheckerboard="0"
     inkscape:deskcolor="#d1d1d1"
     inkscape:document-units="px"
     showgrid="false"
     inkscape:zoom="33.583333"
     inkscape:cx="11.985112"
     inkscape:cy="12"
     inkscape:window-width="1920"
     inkscape:window-height="1008"
     inkscape:window-x="0"
     inkscape:window-y="0"
     inkscape:window-maximized="1"
     inkscape:current-layer="svg5"
     showguides="true" />
  <defs
     id="defs2">
    <style
       id="current-color-scheme"
       type="text/css">
         .ColorScheme-Text { color:#232629; }
         .ColorScheme-Highlight { color:#3daee9; }
     </style>
  </defs>
  <path
     id="path530"
     style="fill:currentColor;fill-opacity:1;stroke-width:0.750005;stroke-linecap:round;stroke-linejoin:round"
     class="ColorScheme-Highlight"
     d="M 10,2 C 3.174114,2 2,3.2048695 2,10 v 4 c 0,6.79513 1.174114,8 8,8 h 4 c 6.825886,0 8,-1.20487 8,-8 V 10 C 22,3.2048695 20.825886,2 14,2 Z"
     sodipodi:nodetypes="sssssssss" />
  <g
     id="g1799"
     style="opacity:0.6;fill:currentColor"
     class="ColorScheme-Text">
    <path
       id="path1150"
       style="opacity:0.4"
       d="M 14.515625,4 C 12.827088,5.1476177 12.086386,6.3065507 11.777344,7.515625 A 4.5,4.5 0 0 1 12,7.5 a 4.5,4.5 0 0 1 4.384766,3.496094 c 0.264113,0.475226 0.416018,1.021462 0.416015,1.603515 -10e-6,0.63305 -0.177658,1.223973 -0.486328,1.726563 1.284489,-1.075759 2.078125,-2.727769 2.078125,-4.5800782 0,-0.2918396 -0.02685,-0.5756011 -0.06836,-0.8554688 -0.07684,-0.1088671 -0.159861,-0.2204911 -0.25,-0.3359375 C 16.464561,6.4931147 14.995335,5.8941142 14.515625,4 Z m 3.957031,5.1113281 c 0.0376,0.085778 0.07342,0.1722716 0.107422,0.2597657 -0.0022,-0.034771 -0.007,-0.068908 -0.0098,-0.1035157 -0.03155,-0.051395 -0.06324,-0.1035326 -0.09766,-0.15625 z" />
    <path
       id="path585"
       style="opacity:0.7;stroke:none;stroke-width:2;stroke-linecap:round;stroke-linejoin:round"
       d="m 12,8 a 4,4 0 0 0 -1.935547,0.5117188 c 0.241973,0.1929965 0.46447,0.3808044 0.603516,0.4902343 0.578838,0.4555767 1.298291,0.7309056 1.474609,0.7792969 L 12.011719,9.7636719 A 0.50005,0.50005 0 0 1 12.5,10.148438 c 0.04593,0.194134 -0.01939,0.513724 -0.181641,0.726562 v 0.002 c -0.009,0.01187 -0.0277,0.03691 -0.05664,0.07031 -0.129796,0.149403 -0.302825,0.298694 -0.552735,0.478515 -0.09355,0.06729 -0.195089,0.134953 -0.304687,0.207031 a 0.50005,0.50005 0 0 1 -0.257813,0.08203 c -0.109922,0.0035 -0.21469,0.01018 -0.3125,0.01758 -0.09699,0.0074 -0.191148,0.01605 -0.279296,0.02734 -0.261523,0.03356 -0.472904,0.08255 -0.6464849,0.140625 -0.058085,0.01943 -0.1123675,0.03955 -0.1621093,0.06055 a 0.50005,0.50005 0 0 0 -0.00195,0 h -0.00195 c -0.09655,0.04109 -0.1800588,0.08817 -0.2597656,0.138671 -0.1656495,0.111037 -0.2827347,0.205324 -0.3515625,0.277344 -0.1417964,0.148469 -0.1433006,0.159207 -0.1191406,0.357422 0.012181,0.10015 0.047035,0.2418 0.109375,0.423828 0.017991,0.05246 0.037347,0.105883 0.060547,0.158203 0.00195,0.0034 0.00365,0.0037 0.00586,0.0078 0.00307,0.0057 0.00472,0.01569 0.00977,0.02734 0.00111,0.0023 0.00309,0.0042 0.00391,0.0059 8.8e-4,0.002 0.00135,0.0045 0.00195,0.0059 l 0.00195,0.002 -0.00391,-0.01367 c 0.028095,0.06029 0.057731,0.119275 0.091797,0.177735 a 0.50005,0.50005 0 0 1 0.00391,0.0078 c 0.0351,0.05958 0.068817,0.11261 0.1035156,0.16211 v 0.002 l 0.00195,0.002 0.015625,0.01953 a 0.50005,0.50005 0 0 1 0.00391,0.0059 c 0.032722,0.04523 0.071114,0.09438 0.109375,0.140625 a 0.50005,0.50005 0 0 1 0.00586,0.0078 c 0.00358,0.0043 0.014872,0.01598 0.033203,0.03711 a 0.50005,0.50005 0 0 0 0.00195,0.002 c 0.00139,0.0016 0.011146,0.01286 0.029297,0.0332 a 0.50005,0.50005 0 0 0 0.00195,0.002 c -0.0012,-0.0014 0.00856,0.0082 0.011719,0.01172 l 0.013672,0.01563 c 0.020394,0.02226 0.040675,0.0441 0.060547,0.06445 l 0.00391,0.0039 0.00391,0.0039 a 0.50005,0.50005 0 0 0 0.00195,0.002 c 0.1085899,0.109912 0.2311439,0.216637 0.3652343,0.316407 0.0081,0.0059 0.01689,0.01123 0.02734,0.01953 l 0.002,0.002 c 0.01601,0.01191 0.03262,0.02535 0.04102,0.03125 0.03643,0.02565 0.0724,0.04947 0.107422,0.07227 -0.0045,-0.0027 0.0077,0.0036 0.0332,0.01953 a 0.50005,0.50005 0 0 0 0.002,0.002 c 0.03564,0.02254 0.06275,0.04032 0.08984,0.05664 l 0.01758,0.0098 c 0.006,0.0033 0.0096,0.0053 0.01758,0.0098 a 0.50005,0.50005 0 0 0 0.002,0 c 0.0548,0.0316 0.111755,0.0632 0.171875,0.09375 a 0.50005,0.50005 0 0 0 0.002,0 c 0.02949,0.01507 0.03821,0.01987 0.02539,0.01367 a 0.50005,0.50005 0 0 1 0.0059,0.0039 c 0.454318,0.225238 1.00071,0.365861 1.605469,0.400391 1.411045,-0.15334 2.509038,-1.371633 2.509765,-2.816407 -0.0014,-1.087369 -0.628797,-2.071065 -1.613281,-2.5332028 a 0.50005,0.50005 0 0 1 0.177734,-0.9511718 c 0.06062,-0.00427 0.127472,-0.00904 0.201172,-0.00977 a 0.50005,0.50005 0 0 1 0.0059,0 c 0.384141,-4.3e-6 0.752478,0.058267 1.099609,0.1660156 A 4,4 0 0 0 12,8 Z m -2.6445312,5.646484 c 1.688e-4,1.7e-4 0.035883,0.05166 0.064453,0.0918 -0.016394,-0.02611 -0.02727,-0.04633 -0.03125,-0.05273 z" />
    <path
       d="M 7.07418,5.8632815 C 5.3484,7.1978715 4.19674,9.2189215 4.0273,11.509771 4.0105,11.682081 4,11.869452 4,12.093752 c 0,4.36666 3.58172,7.90625 8,7.90625 4.41828,0 8,-3.53959 8,-7.90625 0,-2.03298 -0.77706,-3.8863405 -2.05273,-5.2871105 0.0284,-10e-4 -0.11916,-0.11624 -0.19532,-0.0879 0.47233,0.78289 0.7669,1.68681 0.82813,2.65234 -0.0803,-0.2066 -0.1703,-0.40841 -0.27149,-0.60546 0.0539,0.3197 0.084,0.64541 0.084,0.98046 0,1.8523105 -0.79364,3.5043205 -2.07813,4.5800805 0.30867,-0.50259 0.48632,-1.09351 0.48633,-1.72656 10e-6,-1.82529 -1.4794,-3.3066605 -3.30469,-3.3066405 -0.0569,5.6e-4 -0.11507,0.004 -0.17187,0.008 1.15849,0.54382 1.8987,1.7065605 1.90039,2.9863305 -8.6e-4,1.70871 -1.30144,3.16403 -2.98633,3.32812 -0.69401,-0.0316 -1.32049,-0.20155 -1.85156,-0.46484 -0.0125,-0.006 -0.0248,-0.0132 -0.0371,-0.0195 -0.0667,-0.0339 -0.13171,-0.0688 -0.19531,-0.10547 -0.007,-0.004 -0.0145,-0.008 -0.0215,-0.0117 -0.042,-0.0246 -0.0824,-0.0505 -0.12304,-0.0762 -0.008,-0.005 -0.0155,-0.009 -0.0234,-0.0137 -0.0472,-0.0303 -0.0935,-0.0619 -0.13867,-0.0937 -0.0225,-0.0158 -0.0445,-0.0326 -0.0664,-0.0488 -0.005,-0.004 -0.0104,-0.008 -0.0156,-0.0117 -0.15338,-0.11412 -0.29452,-0.23632 -0.42188,-0.36523 -0.003,-0.003 -0.005,-0.005 -0.008,-0.008 -0.0317,-0.0323 -0.0618,-0.0646 -0.0918,-0.0977 -0.005,-0.006 -0.0104,-0.0117 -0.0156,-0.0176 -0.0116,-0.013 -0.0238,-0.0259 -0.0352,-0.0391 -0.0131,-0.0151 -0.0264,-0.0297 -0.0391,-0.0449 -0.003,-0.003 -0.005,-0.007 -0.008,-0.01 -0.0446,-0.0539 -0.0888,-0.11059 -0.1289,-0.16602 -0.005,-0.006 -0.009,-0.0115 -0.0137,-0.0176 -8.6e-4,-0.001 -10e-4,-0.003 -0.002,-0.004 -0.002,-0.003 -0.005,-0.006 -0.008,-0.01 -0.046,-0.0654 -0.0874,-0.13208 -0.12695,-0.19921 -0.002,-0.003 -0.004,-0.007 -0.006,-0.01 -0.0419,-0.0719 -0.0791,-0.14345 -0.11328,-0.2168 -10e-4,-0.003 -0.004,-0.007 -0.006,-0.01 -6.2e-4,-10e-4 -0.001,-0.003 -0.002,-0.004 -10e-4,-0.002 -0.002,-0.005 -0.004,-0.008 -0.0332,-0.0729 -0.0626,-0.14692 -0.0879,-0.2207 -0.0688,-0.20089 -0.11425,-0.3728 -0.13281,-0.52539 -0.0372,-0.3052 0.035,-0.53448 0.2539,-0.76368 0.10952,-0.11459 0.25604,-0.22862 0.44336,-0.35351 0.10129,-0.0643 0.21295,-0.12472 0.33789,-0.17774 h 0.002 c 0.0623,-0.0263 0.12792,-0.051 0.19727,-0.0742 0.20985,-0.0702 0.45405,-0.12512 0.74219,-0.1621 0.096,-0.0123 0.19838,-0.0231 0.30469,-0.0312 0.10575,-0.008 0.21732,-0.0139 0.33398,-0.0176 0.10719,-0.0705 0.20333,-0.13506 0.28711,-0.19532 0.23041,-0.16579 0.37572,-0.29555 0.4668,-0.40039 0.0136,-0.0157 0.0259,-0.0322 0.0371,-0.0469 0.10299,-0.13458 0.11099,-0.22747 0.0918,-0.30859 h -0.002 c -0.26744,-0.0734 -1.00049,-0.3561105 -1.65234,-0.8691505 -0.26485,-0.20844 -0.56282,-0.51384 -0.96875,-0.78515 -0.14964,-0.50185 -0.25968,-1.06622 -0.0625,-2.11719 -0.74665,0.24546 -1.40957,0.93207 -1.93165,1.51563 -0.0107,-1.8e-4 -0.0204,-0.002 -0.0312,-0.002 -0.31836,-0.61302 -0.2598,-1.41664 -0.29101,-2.14453 z"
       id="path565" />
  </g>
</svg>
